X:220
T:Love Song for Deborah Anne (melody)
R: Waltz
M:3/4
L:1/8
C:John Cairns
K:D
Fd|:"D"f3 F gf|"A"e2 a2 fe|"D"d3 e fd|F4 dF|
"G"B3 A Bd|g2 "D"f3 d|"A"e6|e4 "D"Ad|
f3 A gf|"A"e2 a2 fe|"D"d3 e fd|"G"B4 dB|
"D"F3 d f2|"A"g2 e2 c2|"D"d6|[1 d4 Fd:|[2 d6||
